X:31
T:California
M:2/4
L:1/16
Q:1/4=90
K:D
F2|\
A2A2 A2AA|A2A2 A2A2|F2AA F2AA|F2D2 D2F2|
A2A2 A2A2|B2A2 A2AA|F2AA F2A2|F2D2 D2A2|
D4   F4  |A6     d2|B2A2 d2B2|A6     A2|
AAA2 A2AA|B2A2 A2AA|A2EE E2A2|FD3  D2 ||
